X:1
T:Windmill, The
M:4/4
L:1/8
C:Ciaran Tourish
S:Altan: Island Angel
R:Reel
F:http://www.cnnw.net/~oneil/w.abc	 2002-10-24 02:23:57 UT
K:D
|: "D"d2 fd "A7"ceAc| "G"dBGB "D"AFDE| "Bm"FB ~B2 "D"Adfd|
"A7"eAce afge| "D"d2 fd "A7"ceAc| "G"dBGB "D"AFDF|
"G"GFGA "Bm"Bdfa|1 "A7"gece "D"d2 (3ABc:|2 "A7"gece "D"defg||:
